style/rule-75-time-8.svg

<svg height="173pt" viewBox="0 0 180 173" width="180pt" xmlns="http://www.w3.org/2000/svg"><path d="m0 0h180v173h-180z" fill="#fff"/><g fill="#800080" fill-rule="evenodd"><path d="m60.859375 86.113281 28.640625-16.535156v33.070313zm0 0"/><path d="m89.5 102.648438 28.640625-16.535157v33.070313zm0 0"/><path d="m89.5 69.578125 28.640625-16.535156v33.070312zm0 0"/><path d="m60.859375 53.042969 28.640625-16.535157v33.070313zm0 0"/><path d="m32.21875 69.578125 28.640625-16.535156v33.070312zm0 0"/><path d="m32.21875 102.648438 28.640625-16.535157v33.070313zm0 0"/><path d="m60.859375 119.183594 28.640625-16.535156v33.070312zm0 0"/><path d="m118.140625 119.183594 28.640625-16.535156v33.070312zm0 0"/><path d="m118.140625 86.113281 28.640625-16.535156v33.070313zm0 0"/><path d="m118.140625 53.042969 28.640625-16.535157v33.070313zm0 0"/><path d="m60.859375 19.972656 28.640625-16.535156v33.070312zm0 0"/><path d="m32.21875 36.507812 28.640625-16.535156v33.070313zm0 0"/><path d="m3.578125 53.042969 28.640625-16.535157v33.070313zm0 0"/><path d="m3.578125 119.183594 28.640625-16.535156v33.070312zm0 0"/><path d="m32.21875 135.71875 28.640625-16.535156v33.070312zm0 0"/><path d="m60.859375 152.253906 28.640625-16.535156v33.070312zm0 0"/><path d="m146.78125 102.648438-28.640625-16.535157v33.070313zm0 0"/><path d="m146.78125 69.578125-28.640625-16.535156v33.070312zm0 0"/><path d="m118.140625 53.042969-28.640625-16.535157v33.070313zm0 0"/><path d="m89.5 36.507812-28.640625-16.535156v33.070313zm0 0"/><path d="m60.859375 53.042969-28.640625-16.535157v33.070313zm0 0"/><path d="m60.859375 86.113281-28.640625-16.535156v33.070313zm0 0"/><path d="m60.859375 119.183594-28.640625-16.535156v33.070312zm0 0"/><path d="m89.5 135.71875-28.640625-16.535156v33.070312zm0 0"/><path d="m118.140625 119.183594-28.640625-16.535156v33.070312zm0 0"/><path d="m175.421875 86.113281-28.640625-16.535156v33.070313zm0 0"/><path d="m146.78125 36.507812-28.640625-16.535156v33.070313zm0 0"/><path d="m118.140625 19.972656-28.640625-16.535156v33.070312zm0 0"/><path d="m60.859375 19.972656-28.640625-16.535156v33.070312zm0 0"/><path d="m32.21875 69.578125-28.640625-16.535156v33.070312zm0 0"/><path d="m32.21875 102.648438-28.640625-16.535157v33.070313zm0 0"/><path d="m60.859375 152.253906-28.640625-16.535156v33.070312zm0 0"/><path d="m118.140625 152.253906-28.640625-16.535156v33.070312zm0 0"/><path d="m146.78125 135.71875-28.640625-16.535156v33.070312zm0 0"/></g></svg>

<?xml version="1.0" encoding="UTF-8"?>
<svg xmlns="http://www.w3.org/2000/svg" xmlns:xlink="http://www.w3.org/1999/xlink" width="180pt" height="173pt" viewBox="0 0 180 173" version="1.1">
<g id="surface46">
<rect x="0" y="0" width="180" height="173" style="fill:rgb(100%,100%,100%);fill-opacity:1;stroke:none;"/>
<path style=" stroke:none;fill-rule:evenodd;fill:rgb(50.000763%,0%,50.000763%);fill-opacity:1;" d="M 60.859375 86.113281 L 89.5 69.578125 L 89.5 102.648438 Z M 60.859375 86.113281 "/>
<path style=" stroke:none;fill-rule:evenodd;fill:rgb(50.000763%,0%,50.000763%);fill-opacity:1;" d="M 89.5 102.648438 L 118.140625 86.113281 L 118.140625 119.183594 Z M 89.5 102.648438 "/>
<path style=" stroke:none;fill-rule:evenodd;fill:rgb(50.000763%,0%,50.000763%);fill-opacity:1;" d="M 89.5 69.578125 L 118.140625 53.042969 L 118.140625 86.113281 Z M 89.5 69.578125 "/>
<path style=" stroke:none;fill-rule:evenodd;fill:rgb(50.000763%,0%,50.000763%);fill-opacity:1;" d="M 60.859375 53.042969 L 89.5 36.507812 L 89.5 69.578125 Z M 60.859375 53.042969 "/>
<path style=" stroke:none;fill-rule:evenodd;fill:rgb(50.000763%,0%,50.000763%);fill-opacity:1;" d="M 32.21875 69.578125 L 60.859375 53.042969 L 60.859375 86.113281 Z M 32.21875 69.578125 "/>
<path style=" stroke:none;fill-rule:evenodd;fill:rgb(50.000763%,0%,50.000763%);fill-opacity:1;" d="M 32.21875 102.648438 L 60.859375 86.113281 L 60.859375 119.183594 Z M 32.21875 102.648438 "/>
<path style=" stroke:none;fill-rule:evenodd;fill:rgb(50.000763%,0%,50.000763%);fill-opacity:1;" d="M 60.859375 119.183594 L 89.5 102.648438 L 89.5 135.71875 Z M 60.859375 119.183594 "/>
<path style=" stroke:none;fill-rule:evenodd;fill:rgb(50.000763%,0%,50.000763%);fill-opacity:1;" d="M 118.140625 119.183594 L 146.78125 102.648438 L 146.78125 135.71875 Z M 118.140625 119.183594 "/>
<path style=" stroke:none;fill-rule:evenodd;fill:rgb(50.000763%,0%,50.000763%);fill-opacity:1;" d="M 118.140625 86.113281 L 146.78125 69.578125 L 146.78125 102.648438 Z M 118.140625 86.113281 "/>
<path style=" stroke:none;fill-rule:evenodd;fill:rgb(50.000763%,0%,50.000763%);fill-opacity:1;" d="M 118.140625 53.042969 L 146.78125 36.507812 L 146.78125 69.578125 Z M 118.140625 53.042969 "/>
<path style=" stroke:none;fill-rule:evenodd;fill:rgb(50.000763%,0%,50.000763%);fill-opacity:1;" d="M 60.859375 19.972656 L 89.5 3.4375 L 89.5 36.507812 Z M 60.859375 19.972656 "/>
<path style=" stroke:none;fill-rule:evenodd;fill:rgb(50.000763%,0%,50.000763%);fill-opacity:1;" d="M 32.21875 36.507812 L 60.859375 19.972656 L 60.859375 53.042969 Z M 32.21875 36.507812 "/>
<path style=" stroke:none;fill-rule:evenodd;fill:rgb(50.000763%,0%,50.000763%);fill-opacity:1;" d="M 3.578125 53.042969 L 32.21875 36.507812 L 32.21875 69.578125 Z M 3.578125 53.042969 "/>
<path style=" stroke:none;fill-rule:evenodd;fill:rgb(50.000763%,0%,50.000763%);fill-opacity:1;" d="M 3.578125 119.183594 L 32.21875 102.648438 L 32.21875 135.71875 Z M 3.578125 119.183594 "/>
<path style=" stroke:none;fill-rule:evenodd;fill:rgb(50.000763%,0%,50.000763%);fill-opacity:1;" d="M 32.21875 135.71875 L 60.859375 119.183594 L 60.859375 152.253906 Z M 32.21875 135.71875 "/>
<path style=" stroke:none;fill-rule:evenodd;fill:rgb(50.000763%,0%,50.000763%);fill-opacity:1;" d="M 60.859375 152.253906 L 89.5 135.71875 L 89.5 168.789062 Z M 60.859375 152.253906 "/>
<path style=" stroke:none;fill-rule:evenodd;fill:rgb(50.000763%,0%,50.000763%);fill-opacity:1;" d="M 146.78125 102.648438 L 118.140625 86.113281 L 118.140625 119.183594 Z M 146.78125 102.648438 "/>
<path style=" stroke:none;fill-rule:evenodd;fill:rgb(50.000763%,0%,50.000763%);fill-opacity:1;" d="M 146.78125 69.578125 L 118.140625 53.042969 L 118.140625 86.113281 Z M 146.78125 69.578125 "/>
<path style=" stroke:none;fill-rule:evenodd;fill:rgb(50.000763%,0%,50.000763%);fill-opacity:1;" d="M 118.140625 53.042969 L 89.5 36.507812 L 89.5 69.578125 Z M 118.140625 53.042969 "/>
<path style=" stroke:none;fill-rule:evenodd;fill:rgb(50.000763%,0%,50.000763%);fill-opacity:1;" d="M 89.5 36.507812 L 60.859375 19.972656 L 60.859375 53.042969 Z M 89.5 36.507812 "/>
<path style=" stroke:none;fill-rule:evenodd;fill:rgb(50.000763%,0%,50.000763%);fill-opacity:1;" d="M 60.859375 53.042969 L 32.21875 36.507812 L 32.21875 69.578125 Z M 60.859375 53.042969 "/>
<path style=" stroke:none;fill-rule:evenodd;fill:rgb(50.000763%,0%,50.000763%);fill-opacity:1;" d="M 60.859375 86.113281 L 32.21875 69.578125 L 32.21875 102.648438 Z M 60.859375 86.113281 "/>
<path style=" stroke:none;fill-rule:evenodd;fill:rgb(50.000763%,0%,50.000763%);fill-opacity:1;" d="M 60.859375 119.183594 L 32.21875 102.648438 L 32.21875 135.71875 Z M 60.859375 119.183594 "/>
<path style=" stroke:none;fill-rule:evenodd;fill:rgb(50.000763%,0%,50.000763%);fill-opacity:1;" d="M 89.5 135.71875 L 60.859375 119.183594 L 60.859375 152.253906 Z M 89.5 135.71875 "/>
<path style=" stroke:none;fill-rule:evenodd;fill:rgb(50.000763%,0%,50.000763%);fill-opacity:1;" d="M 118.140625 119.183594 L 89.5 102.648438 L 89.5 135.71875 Z M 118.140625 119.183594 "/>
<path style=" stroke:none;fill-rule:evenodd;fill:rgb(50.000763%,0%,50.000763%);fill-opacity:1;" d="M 175.421875 86.113281 L 146.78125 69.578125 L 146.78125 102.648438 Z M 175.421875 86.113281 "/>
<path style=" stroke:none;fill-rule:evenodd;fill:rgb(50.000763%,0%,50.000763%);fill-opacity:1;" d="M 146.78125 36.507812 L 118.140625 19.972656 L 118.140625 53.042969 Z M 146.78125 36.507812 "/>
<path style=" stroke:none;fill-rule:evenodd;fill:rgb(50.000763%,0%,50.000763%);fill-opacity:1;" d="M 118.140625 19.972656 L 89.5 3.4375 L 89.5 36.507812 Z M 118.140625 19.972656 "/>
<path style=" stroke:none;fill-rule:evenodd;fill:rgb(50.000763%,0%,50.000763%);fill-opacity:1;" d="M 60.859375 19.972656 L 32.21875 3.4375 L 32.21875 36.507812 Z M 60.859375 19.972656 "/>
<path style=" stroke:none;fill-rule:evenodd;fill:rgb(50.000763%,0%,50.000763%);fill-opacity:1;" d="M 32.21875 69.578125 L 3.578125 53.042969 L 3.578125 86.113281 Z M 32.21875 69.578125 "/>
<path style=" stroke:none;fill-rule:evenodd;fill:rgb(50.000763%,0%,50.000763%);fill-opacity:1;" d="M 32.21875 102.648438 L 3.578125 86.113281 L 3.578125 119.183594 Z M 32.21875 102.648438 "/>
<path style=" stroke:none;fill-rule:evenodd;fill:rgb(50.000763%,0%,50.000763%);fill-opacity:1;" d="M 60.859375 152.253906 L 32.21875 135.71875 L 32.21875 168.789062 Z M 60.859375 152.253906 "/>
<path style=" stroke:none;fill-rule:evenodd;fill:rgb(50.000763%,0%,50.000763%);fill-opacity:1;" d="M 118.140625 152.253906 L 89.5 135.71875 L 89.5 168.789062 Z M 118.140625 152.253906 "/>
<path style=" stroke:none;fill-rule:evenodd;fill:rgb(50.000763%,0%,50.000763%);fill-opacity:1;" d="M 146.78125 135.71875 L 118.140625 119.183594 L 118.140625 152.253906 Z M 146.78125 135.71875 "/>
</g>
</svg>
